img/menu_hamburguer.svg

<svg xmlns="http://www.w3.org/2000/svg" height="48" width="48"><path d="M6 36V33H42V36ZM6 25.5V22.5H42V25.5ZM6 15V12H42V15Z"/></svg>

<?xml version="1.0" encoding="utf-8"?>
<!-- Generator: Adobe Illustrator 26.3.1, SVG Export Plug-In . SVG Version: 6.00 Build 0)  -->
<svg version="1.1" id="Camada_1" xmlns="http://www.w3.org/2000/svg" xmlns:xlink="http://www.w3.org/1999/xlink" x="0px" y="0px"
	 viewBox="0 0 48 48" style="enable-background:new 0 0 48 48;" xml:space="preserve">
<style type="text/css">
	.st0{fill:#EB6C8D;}
</style>
<path class="st0" d="M6,36v-3h36v3H6z M6,25.5v-3h36v3H6z M6,15v-3h36v3H6z"/>
</svg>
